frontend/public/Images/Logo.svg

<svg width="144" height="59" viewBox="0 0 144 59" fill="none" xmlns="http://www.w3.org/2000/svg">
<path fill-rule="evenodd" clip-rule="evenodd" d="M35.0589 40.8275C35.0589 48.7578 39.6451 55.1675 46.1266 57.7181C51.5213 59.8444 51.3844 58.3458 51.3844 52.5727C51.3844 51.3129 50.9779 50.4818 49.8247 49.8187C48.6716 49.1601 45.6053 48.36 45.4506 43.0333C44.9823 27.3318 59.9514 27.3318 59.4875 43.0333C59.3284 48.36 56.2577 49.1601 55.109 49.8187C53.9558 50.4818 53.5493 51.3084 53.5493 52.5727C53.5493 57.7579 53.1252 59.6233 57.9146 58.0806C64.8822 55.8306 69.8748 49.2441 69.8748 40.9203C69.8748 30.5809 62.081 22.8318 52.4668 22.8318H52.3741C42.7599 22.8362 35.0589 30.4925 35.0589 40.8275Z" fill="#E50012"/>
<path fill-rule="evenodd" clip-rule="evenodd" d="M72.5567 40.9469C72.5567 49.4033 77.7349 56.1401 84.866 58.3724C89.081 59.6941 88.9131 58.8277 88.9131 54.1553C88.9131 52.7894 88.4801 51.892 87.2298 51.1803C85.8115 50.3669 84.3358 50.0133 84 48.1302C83.7614 46.7643 85.2504 33.7371 85.299 33.1625C85.3476 32.5878 85.4492 32.0618 85.5287 31.9778C85.6083 31.8982 85.7541 31.8982 85.9087 31.8982H86.5493V45.3099C86.5493 45.7387 86.8984 46.0923 87.3314 46.0923C87.7599 46.0923 88.1178 45.7431 88.1178 45.3099V31.8938H89.3108V45.3055C89.3108 45.7343 89.6598 46.0879 90.0928 46.0879C90.5214 46.0879 90.8792 45.7387 90.8792 45.3055V31.8938H92.0678V45.3055C92.0678 45.7343 92.4212 46.0879 92.8542 46.0879C93.2828 46.0879 93.6362 45.7387 93.6362 45.3055V31.8938H94.2769C94.4359 31.8938 94.5773 31.8938 94.6569 31.9734C94.7364 32.0574 94.838 32.5834 94.8866 33.1581C94.9352 33.7327 96.4286 46.7598 96.1856 48.1258C95.8498 50.0133 94.3741 50.3625 92.9558 51.1759C91.7055 51.892 91.2725 52.7849 91.2725 54.1509C91.2725 59.3228 91.5331 59.8444 96.2872 58.0762C102.932 55.6052 107.629 49.1425 107.629 41.0398C107.629 30.6295 99.7776 22.823 90.0972 22.823H90.0044C80.3108 22.8318 72.5567 30.5411 72.5567 40.9469Z" fill="#E50012"/>
<path d="M1.62592 3.95628C1.62592 2.7097 1.90868 1.79467 2.4698 1.21116C3.03092 0.632083 3.90132 0.340332 5.081 0.340332H10.2239C11.7526 0.340332 13.0913 0.583458 14.2445 1.06529C15.3932 1.55154 16.3476 2.22345 17.1031 3.08544C17.8586 3.94743 18.4153 4.95088 18.7776 6.09136C19.1355 7.23184 19.3166 8.48284 19.3166 9.8355C19.3166 11.1882 19.1355 12.4392 18.7776 13.5796C18.4197 14.7245 17.8586 15.7236 17.1031 16.5856C16.3476 17.452 15.3932 18.1239 14.2401 18.6057C13.0869 19.092 11.7482 19.3307 10.2194 19.3307H5.081C3.90574 19.3307 3.03534 19.0389 2.4698 18.4598C1.90868 17.8808 1.62592 16.9657 1.62592 15.7147V3.95628ZM8.87628 14.5875C10.5464 14.5875 11.6907 14.2029 12.3181 13.4249C12.9411 12.6513 13.2548 11.4578 13.2548 9.8355C13.2548 8.21761 12.9411 7.02408 12.3181 6.2505C11.6951 5.47692 10.5464 5.09234 8.87628 5.09234H7.53313V14.5875H8.87628Z" fill="#E50012"/>
<path d="M22.4801 3.95628C22.4801 2.7097 22.7629 1.79467 23.324 1.21116C23.8851 0.632083 24.7555 0.340332 25.9352 0.340332H35.5847C36.4639 0.340332 37.1222 0.539253 37.564 0.932675C37.997 1.33052 38.2179 1.87423 38.2179 2.55941C38.2179 3.24458 37.997 3.78388 37.5596 4.18172C37.1178 4.57514 36.4595 4.77406 35.5802 4.77406H28.542V7.43518H34.1841C35.0633 7.43518 35.7216 7.63411 36.159 8.02753C36.5964 8.42537 36.8174 8.96467 36.8174 9.64984C36.8174 10.335 36.5964 10.8743 36.159 11.2722C35.7172 11.6656 35.0589 11.8645 34.1841 11.8645H28.542V14.8969H35.8719C36.7511 14.8969 37.4094 15.0959 37.8512 15.4893C38.2886 15.8871 38.5096 16.4264 38.5096 17.1116C38.5096 17.7968 38.2886 18.3361 37.8512 18.7339C37.4138 19.1317 36.7511 19.3262 35.8719 19.3262H25.9352C24.7555 19.3262 23.8851 19.0345 23.324 18.4554C22.7629 17.8763 22.4801 16.9613 22.4801 15.7103V3.95628Z" fill="#E50012"/>
<path d="M53.9293 14.4284C54.7202 14.4284 55.352 14.645 55.8292 15.0738C56.3019 15.507 56.5405 16.1038 56.5405 16.8818C56.5405 17.6554 56.3019 18.2565 55.8292 18.6897C55.3564 19.1229 54.7202 19.3351 53.9293 19.3351H44.9647C43.7894 19.3351 42.919 19.0434 42.3535 18.4643C41.7924 17.8852 41.5096 16.9702 41.5096 15.7192V3.27115C41.5096 2.25002 41.7835 1.44991 42.327 0.870832C42.8748 0.291751 43.6127 0 44.5449 0C45.4772 0 46.215 0.291751 46.7585 0.870832C47.3019 1.44991 47.5759 2.25002 47.5759 3.27115V14.4284H53.9293Z" fill="#E50012"/>
<path d="M59.0192 3.27115C59.0192 2.25002 59.2931 1.44991 59.8365 0.870832C60.38 0.291751 61.1178 0 62.0501 0C62.9823 0 63.7202 0.291751 64.2636 0.870832C64.8071 1.44991 65.081 2.25002 65.081 3.27115V16.4044C65.081 17.4255 64.8071 18.2256 64.2636 18.8047C63.7202 19.3838 62.9823 19.6755 62.0501 19.6755C61.1178 19.6755 60.38 19.3882 59.8365 18.8047C59.2931 18.2256 59.0192 17.4255 59.0192 16.4044V3.27115Z" fill="#E50012"/>
<path d="M79.5552 2.08204C79.732 1.3615 80.0899 0.835469 80.6377 0.499513C81.1812 0.163557 81.7688 0 82.405 0C83.1782 0 83.8498 0.243126 84.4198 0.724957C84.9897 1.20679 85.2769 1.82123 85.2769 2.55945C85.2769 2.8733 85.246 3.1739 85.1841 3.45681C85.1223 3.73972 85.0206 4.09777 84.8837 4.5354L80.4787 17.2221C80.1429 18.2256 79.7055 18.8842 79.162 19.1981C78.6186 19.5164 77.7924 19.6711 76.6834 19.6711C75.5744 19.6711 74.7482 19.512 74.2047 19.1981C73.6613 18.8798 73.2195 18.2212 72.8881 17.2221L68.4831 4.5354C68.3417 4.09777 68.2401 3.7353 68.1782 3.45681C68.1164 3.1739 68.0854 2.87773 68.0854 2.55945C68.0854 1.82123 68.3726 1.21121 68.9426 0.724957C69.5125 0.243126 70.1841 0 70.9573 0C71.5891 0 72.1768 0.167978 72.7246 0.499513C73.2681 0.835469 73.6304 1.3615 73.8071 2.08204L76.6525 13.0006H76.7055L79.5552 2.08204Z" fill="#E50012"/>
<path d="M88.3608 3.95628C88.3608 2.7097 88.6392 1.79467 89.2047 1.21116C89.7658 0.632083 90.6362 0.340332 91.8159 0.340332H101.465C102.345 0.340332 103.003 0.539253 103.44 0.932675C103.878 1.33052 104.099 1.86981 104.099 2.55499C104.099 3.24016 103.878 3.77946 103.44 4.1773C102.999 4.57072 102.34 4.76964 101.465 4.76964H94.4271V7.43076H100.069C100.948 7.43076 101.607 7.62969 102.044 8.02311C102.486 8.42095 102.703 8.96025 102.703 9.64542C102.703 10.3306 102.482 10.8699 102.044 11.2677C101.607 11.6612 100.944 11.8601 100.069 11.8601H94.4271V14.8925H101.757C102.636 14.8925 103.295 15.0914 103.736 15.4849C104.174 15.8827 104.395 16.422 104.395 17.1072C104.395 17.7923 104.174 18.3316 103.736 18.7295C103.295 19.1273 102.636 19.3218 101.757 19.3218H91.8159C90.6407 19.3218 89.7703 19.0301 89.2047 18.451C88.6436 17.8719 88.3608 16.9569 88.3608 15.7059V3.95628Z" fill="#E50012"/>
<path d="M107.05 3.95625C107.05 2.692 107.346 1.77254 107.934 1.2023C108.521 0.632057 109.467 0.344727 110.77 0.344727H117.495C119.691 0.344727 121.361 0.85308 122.501 1.87421C123.645 2.89534 124.215 4.17727 124.215 5.72444C124.215 6.93565 123.87 7.93909 123.186 8.73036C122.501 9.52162 121.56 10.03 120.367 10.2598V10.3129C121.405 10.3836 122.218 10.6267 122.806 11.0511C123.393 11.471 123.751 12.1562 123.875 13.1066L124.087 14.6891C124.175 15.2505 124.242 15.7412 124.286 16.1656C124.33 16.5855 124.352 16.9834 124.352 17.3547C124.352 18.0399 124.074 18.5968 123.521 19.0301C122.969 19.4633 122.337 19.6754 121.635 19.6754C120.702 19.6754 119.938 19.4633 119.342 19.0433C118.745 18.6234 118.392 17.9647 118.29 17.0674L117.999 14.561C117.91 13.8404 117.636 13.3276 117.181 13.0315C116.726 12.7309 116.107 12.585 115.339 12.585H112.966V16.5148C112.966 17.5359 112.71 18.3184 112.202 18.8621C111.689 19.4058 110.96 19.6799 110.015 19.6799C109.065 19.6799 108.336 19.4058 107.828 18.8621C107.32 18.3184 107.063 17.5359 107.063 16.5148V3.95625H107.05ZM115.988 8.62426C116.867 8.62426 117.499 8.47839 117.884 8.19106C118.268 7.89931 118.462 7.43074 118.462 6.77651C118.462 6.1267 118.268 5.65371 117.884 5.36638C117.499 5.07463 116.863 4.93317 115.988 4.93317H112.957V8.62426H115.988Z" fill="#E50012"/>
<path d="M136.975 1.84776C137.571 0.614445 138.513 0 139.794 0C140.602 0 141.287 0.287331 141.853 0.857571C142.414 1.42781 142.697 2.10414 142.697 2.8733C142.697 3.1739 142.635 3.47891 142.511 3.79718C142.387 4.11546 142.193 4.50004 141.932 4.95977L137.554 12.532V16.4088C137.554 17.4299 137.28 18.23 136.736 18.8091C136.193 19.3882 135.455 19.6799 134.523 19.6799C133.591 19.6799 132.853 19.3926 132.309 18.8091C131.766 18.23 131.492 17.4299 131.492 16.4088V12.532L127.118 4.95977C126.853 4.50446 126.663 4.11546 126.539 3.79718C126.415 3.48333 126.354 3.1739 126.354 2.8733C126.354 2.09972 126.636 1.42781 127.197 0.857571C127.754 0.287331 128.439 0 129.247 0C130.529 0 131.47 0.614445 132.071 1.84776L134.523 6.94014L136.975 1.84776Z" fill="#E50012"/>
<path d="M1.41826 33.2244C2.36377 30.9699 3.67158 29.0824 5.3461 27.5662C7.0162 26.0544 8.9028 24.9227 11.0015 24.1845C13.1001 23.4419 15.3004 23.0706 17.6024 23.0706C19.5596 23.0706 21.3932 23.3314 23.1163 23.853C24.8351 24.3746 26.3417 25.0907 27.6362 26.0057C28.9308 26.9208 29.9293 27.9552 30.6406 29.1045C31.352 30.2582 31.7055 31.4473 31.7055 32.6807C31.7055 34.0377 31.2239 35.1561 30.2607 36.0402C29.2975 36.9243 28.0604 37.3664 26.5449 37.3664C25.5331 37.3664 24.7688 37.194 24.2518 36.8447C23.7305 36.4999 23.1075 35.7264 22.3829 34.524C21.6892 33.4189 20.9381 32.6541 20.134 32.2298C19.3299 31.8054 18.296 31.5888 17.0368 31.5888C15.2695 31.5888 13.8027 32.4199 12.6362 34.0731C11.4698 35.7308 10.8866 38.0117 10.8866 40.916C10.8866 43.7893 11.4566 46.0614 12.5876 47.7324C13.7231 49.4033 15.3932 50.2432 17.6024 50.2432C18.6097 50.2432 19.4536 50.0133 20.134 49.558C20.8144 49.1027 21.6892 48.1302 22.7585 46.6493C23.8277 45.1331 25.1532 44.3772 26.7305 44.3772C28.1797 44.3772 29.3859 44.8281 30.349 45.7255C31.3122 46.6272 31.7938 47.7677 31.7938 49.1557C31.7938 50.5747 31.3608 51.8876 30.4948 53.0855C29.6289 54.2835 28.4845 55.3046 27.0663 56.1401C25.648 56.9756 24.1016 57.6254 22.4315 58.0807C20.757 58.5404 19.1487 58.7658 17.6068 58.7658C15.243 58.7658 13.0074 58.4034 10.9131 57.6784C8.81443 56.9535 6.94551 55.8572 5.30633 54.3896C3.66716 52.922 2.37261 51.0521 1.4271 48.78C0.472754 46.5035 0 43.8821 0 40.916C0 38.0471 0.472754 35.4832 1.41826 33.2244Z" fill="#E50012"/>
<path d="M132.026 26.4786C133.162 25.2188 134.063 24.3656 134.722 23.9236C135.384 23.4815 136.14 23.2605 136.993 23.2605C138.38 23.2605 139.533 23.7512 140.448 24.7281C141.362 25.705 141.822 26.7482 141.822 27.8534C141.822 28.5783 141.671 29.2193 141.371 29.7718C141.071 30.3244 140.527 30.9963 139.741 31.7832L134.633 37.4148L142.913 50.3359C143.638 51.5029 144 52.577 144 53.554C144 54.942 143.439 56.1267 142.321 57.1036C141.199 58.0805 139.913 58.5712 138.464 58.5712C137.518 58.5712 136.674 58.3988 135.932 58.0496C135.19 57.7048 134.536 57.0727 133.966 56.1576L126.539 44.6556L123.464 48.0151V52.7008C123.464 54.5309 122.973 55.9675 121.997 57.0108C121.021 58.0496 119.695 58.5712 118.025 58.5712C116.355 58.5712 115.029 58.0496 114.049 57.0108C113.072 55.9675 112.582 54.5309 112.582 52.7008V29.1309C112.582 27.3008 113.072 25.8642 114.049 24.8209C115.025 23.7821 116.35 23.2605 118.025 23.2605C119.695 23.2605 121.021 23.7821 121.997 24.8209C122.973 25.8642 123.464 27.3008 123.464 29.1309V35.85L132.026 26.4786Z" fill="#E50012"/>
</svg>

<svg width="144" height="59" fill="none" xmlns="http://www.w3.org/2000/svg"><path fill-rule="evenodd" clip-rule="evenodd" d="M35.059 40.828c0 7.93 4.586 14.34 11.068 16.89 5.394 2.126 5.257.628 5.257-5.145 0-1.26-.406-2.091-1.56-2.754-1.152-.659-4.219-1.459-4.373-6.786-.469-15.701 14.5-15.701 14.036 0-.159 5.327-3.23 6.127-4.378 6.786-1.153.663-1.56 1.49-1.56 2.754 0 5.185-.424 7.05 4.366 5.508 6.967-2.25 11.96-8.837 11.96-17.16 0-10.34-7.794-18.09-17.408-18.09h-.093c-9.614.005-17.315 7.662-17.315 17.997zM72.557 40.947c0 8.456 5.178 15.193 12.309 17.425 4.215 1.322 4.047.456 4.047-4.217 0-1.366-.433-2.263-1.683-2.975-1.419-.813-2.894-1.167-3.23-3.05-.239-1.366 1.25-14.393 1.299-14.968.049-.574.15-1.1.23-1.184.08-.08.225-.08.38-.08h.64V45.31a.784.784 0 001.569 0V31.894h1.193v13.412a.784.784 0 001.568 0V31.894h1.189v13.412a.784.784 0 001.568 0V31.894h.64c.16 0 .301 0 .38.08.08.083.182.61.23 1.184.05.575 1.543 13.602 1.3 14.968-.336 1.887-1.812 2.236-3.23 3.05-1.25.716-1.684 1.609-1.684 2.975 0 5.172.261 5.693 5.015 3.925 6.645-2.47 11.342-8.934 11.342-17.036 0-10.41-7.851-18.217-17.532-18.217h-.093c-9.693.009-17.447 7.718-17.447 18.124z" fill="#E50012"/><path d="M1.626 3.956c0-1.246.283-2.161.844-2.745C3.03.632 3.9.341 5.08.341h5.143c1.529 0 2.867.242 4.02.724 1.15.487 2.104 1.158 2.86 2.02a8.327 8.327 0 011.674 3.006c.358 1.14.539 2.392.539 3.744 0 1.353-.181 2.604-.54 3.745a8.227 8.227 0 01-1.674 3.006c-.755.866-1.71 1.538-2.863 2.02-1.153.486-2.492.725-4.02.725H5.08c-1.175 0-2.046-.292-2.611-.871-.561-.58-.844-1.494-.844-2.745V3.956zm7.25 10.632c1.67 0 2.815-.385 3.442-1.163.623-.774.937-1.967.937-3.59 0-1.617-.314-2.81-.937-3.585-.623-.773-1.772-1.158-3.442-1.158H7.533v9.495h1.343zM22.48 3.956c0-1.246.283-2.161.844-2.745.561-.579 1.431-.87 2.611-.87h9.65c.879 0 1.537.198 1.979.592.433.398.654.941.654 1.626 0 .686-.221 1.225-.658 1.623-.442.393-1.1.592-1.98.592h-7.038v2.661h5.642c.88 0 1.538.2 1.975.593.437.397.658.937.658 1.622s-.22 1.224-.658 1.622c-.442.394-1.1.592-1.975.592h-5.642v3.033h7.33c.88 0 1.537.199 1.98.592.437.398.658.937.658 1.623 0 .685-.221 1.224-.659 1.622-.437.398-1.1.592-1.98.592h-9.936c-1.18 0-2.05-.291-2.611-.87-.561-.58-.844-1.495-.844-2.746V3.956zM53.93 14.428c.79 0 1.422.217 1.9.646.472.433.71 1.03.71 1.808 0 .773-.238 1.374-.71 1.808-.474.433-1.11.645-1.9.645h-8.965c-1.176 0-2.046-.292-2.612-.87-.56-.58-.843-1.495-.843-2.746V3.271c0-1.021.273-1.821.817-2.4C42.875.29 43.613 0 44.545 0c.932 0 1.67.292 2.213.87.544.58.818 1.38.818 2.401v11.157h6.353zM59.02 3.271c0-1.021.273-1.821.816-2.4C60.38.29 61.118 0 62.05 0c.932 0 1.67.292 2.214.87.543.58.817 1.38.817 2.401v13.133c0 1.021-.274 1.822-.817 2.4-.544.58-1.282.872-2.214.872-.932 0-1.67-.288-2.213-.871-.544-.58-.818-1.38-.818-2.4V3.27zM79.555 2.082c.177-.72.535-1.247 1.083-1.582a3.291 3.291 0 011.767-.5c.773 0 1.445.243 2.015.725.57.482.857 1.096.857 1.834a4.2 4.2 0 01-.093.898c-.062.283-.163.64-.3 1.078l-4.405 12.687c-.336 1.004-.773 1.662-1.317 1.976-.543.318-1.37.473-2.479.473s-1.935-.159-2.478-.473c-.544-.318-.986-.977-1.317-1.976L68.483 4.535c-.141-.437-.243-.8-.305-1.078a4.176 4.176 0 01-.093-.898c0-.738.288-1.348.858-1.834A3.024 3.024 0 0170.957 0c.632 0 1.22.168 1.768.5.543.335.905.861 1.082 1.582l2.846 10.919h.052l2.85-10.919zM88.36 3.956c0-1.246.28-2.161.845-2.745.56-.579 1.431-.87 2.61-.87h9.65c.88 0 1.538.198 1.975.592.438.398.659.937.659 1.622s-.221 1.224-.659 1.622c-.441.394-1.1.593-1.975.593h-7.038v2.66h5.642c.879 0 1.538.2 1.975.593.442.398.659.937.659 1.622 0 .686-.221 1.225-.659 1.623-.437.393-1.1.592-1.975.592h-5.642v3.033h7.33c.879 0 1.538.198 1.979.592.438.398.659.937.659 1.622s-.221 1.225-.659 1.623c-.441.397-1.1.592-1.979.592h-9.941c-1.175 0-2.046-.292-2.611-.871-.561-.58-.844-1.494-.844-2.745V3.956zM107.05 3.956c0-1.264.296-2.183.884-2.754.587-.57 1.533-.857 2.836-.857h6.725c2.196 0 3.866.508 5.006 1.53 1.144 1.02 1.714 2.302 1.714 3.85 0 1.21-.345 2.214-1.029 3.005-.685.792-1.626 1.3-2.819 1.53v.053c1.038.07 1.851.314 2.439.738.587.42.945 1.105 1.069 2.056l.212 1.582c.088.562.155 1.052.199 1.477.044.42.066.817.066 1.189 0 .685-.278 1.242-.831 1.675a2.975 2.975 0 01-1.886.645c-.933 0-1.697-.212-2.293-.632-.597-.42-.95-1.078-1.052-1.976l-.291-2.506c-.089-.72-.363-1.233-.818-1.53-.455-.3-1.074-.446-1.842-.446h-2.373v3.93c0 1.02-.256 1.803-.764 2.347-.513.544-1.242.818-2.187.818-.95 0-1.679-.274-2.187-.818-.508-.544-.765-1.326-.765-2.347V3.956h-.013zm8.938 4.668c.879 0 1.511-.146 1.896-.433.384-.292.578-.76.578-1.414 0-.65-.194-1.123-.578-1.41-.385-.292-1.021-.434-1.896-.434h-3.031v3.691h3.031zM136.975 1.848C137.571.614 138.513 0 139.794 0c.808 0 1.493.287 2.059.858.561.57.844 1.246.844 2.015 0 .3-.062.606-.186.924a9.339 9.339 0 01-.579 1.163l-4.378 7.572v3.877c0 1.02-.274 1.821-.818 2.4-.543.58-1.281.87-2.213.87-.932 0-1.67-.286-2.214-.87-.543-.579-.817-1.38-.817-2.4v-3.877l-4.374-7.572a8.547 8.547 0 01-.579-1.163 2.507 2.507 0 01-.185-.924c0-.773.282-1.445.843-2.015a2.76 2.76 0 012.05-.858c1.282 0 2.223.614 2.824 1.848l2.452 5.092 2.452-5.092zM1.418 33.224c.946-2.254 2.254-4.142 3.928-5.658a16.54 16.54 0 015.655-3.381 19.64 19.64 0 016.601-1.114c1.958 0 3.791.26 5.514.782 1.72.522 3.226 1.238 4.52 2.153 1.295.915 2.293 1.95 3.005 3.099.711 1.153 1.065 2.342 1.065 3.576 0 1.357-.482 2.475-1.445 3.36-.963.883-2.2 1.325-3.716 1.325-1.012 0-1.776-.172-2.293-.521-.521-.345-1.144-1.119-1.87-2.321-.693-1.105-1.444-1.87-2.248-2.294-.804-.425-1.838-.641-3.097-.641-1.767 0-3.234.83-4.4 2.484-1.167 1.658-1.75 3.939-1.75 6.843 0 2.873.57 5.145 1.7 6.816 1.136 1.671 2.806 2.511 5.015 2.511 1.008 0 1.852-.23 2.532-.685.68-.455 1.555-1.428 2.625-2.909 1.069-1.516 2.394-2.272 3.971-2.272 1.45 0 2.656.451 3.619 1.348.963.902 1.445 2.043 1.445 3.43 0 1.42-.433 2.733-1.3 3.93-.865 1.198-2.01 2.22-3.428 3.055a18.868 18.868 0 01-4.634 1.94c-1.675.46-3.283.686-4.825.686-2.364 0-4.6-.363-6.694-1.088a16.295 16.295 0 01-5.607-3.288c-1.639-1.468-2.933-3.338-3.879-5.61C.473 46.504 0 43.882 0 40.916c0-2.869.473-5.433 1.418-7.692zM132.026 26.479c1.136-1.26 2.037-2.113 2.696-2.555.662-.442 1.418-.663 2.271-.663 1.387 0 2.54.49 3.455 1.467.914.977 1.374 2.02 1.374 3.125 0 .725-.151 1.366-.451 1.919-.3.552-.844 1.224-1.63 2.011l-5.108 5.632 8.28 12.92c.725 1.168 1.087 2.242 1.087 3.219 0 1.388-.561 2.573-1.679 3.55-1.122.977-2.408 1.467-3.857 1.467-.946 0-1.79-.172-2.532-.521-.742-.345-1.396-.977-1.966-1.892l-7.427-11.502-3.075 3.36V52.7c0 1.83-.491 3.267-1.467 4.31-.976 1.039-2.302 1.56-3.972 1.56s-2.996-.521-3.976-1.56c-.977-1.044-1.467-2.48-1.467-4.31V29.13c0-1.83.49-3.267 1.467-4.31.976-1.039 2.301-1.56 3.976-1.56 1.67 0 2.996.521 3.972 1.56.976 1.043 1.467 2.48 1.467 4.31v6.719l8.562-9.371z" fill="#E50012"/></svg>
